images/icon_feed.svg

<svg width="21" height="20" fill="none" xmlns="http://www.w3.org/2000/svg"><path fill-rule="evenodd" clip-rule="evenodd" d="M3.19727 3.33333c0-.46023.37309-.83333.83333-.83333 3.75723 0 7.3606 1.49256 10.0173 4.14932 2.6568 2.65677 4.1494 6.26008 4.1494 10.01738 0 .4602-.3731.8333-.8334.8333-.4602 0-.8333-.3731-.8333-.8333 0-3.3152-1.317-6.4947-3.6612-8.83887-2.3442-2.3442-5.52359-3.66116-8.8388-3.66116-.46024 0-.83333-.3731-.83333-.83334Zm0 5.83334c0-.46024.37309-.83334.83333-.83334 2.21014 0 4.32975.87798 5.89256 2.44077 1.56284 1.5628 2.44074 3.6824 2.44074 5.8926 0 .4602-.3731.8333-.8333.8333-.4602 0-.8333-.3731-.8333-.8333 0-1.7681-.70241-3.4638-1.95266-4.7141C7.4944 10.7024 5.79871 10 4.0306 10c-.46024 0-.83333-.3731-.83333-.83333Zm1.66666 5.00003c-.92047 0-1.66666.7462-1.66666 1.6666 0 .9205.74619 1.6667 1.66666 1.6667.92048 0 1.66667-.7462 1.66667-1.6667 0-.9204-.74619-1.6666-1.66667-1.6666Z" fill="#5F7896"/></svg>

<svg width="21" height="20" viewBox="0 0 21 20" fill="none" xmlns="http://www.w3.org/2000/svg">
<path fill-rule="evenodd" clip-rule="evenodd" d="M3.19727 3.33333C3.19727 2.8731 3.57036 2.5 4.0306 2.5C7.78783 2.5 11.3912 3.99256 14.0479 6.64932C16.7047 9.30609 18.1973 12.9094 18.1973 16.6667C18.1973 17.1269 17.8242 17.5 17.3639 17.5C16.9037 17.5 16.5306 17.1269 16.5306 16.6667C16.5306 13.3515 15.2136 10.172 12.8694 7.82783C10.5252 5.48363 7.34581 4.16667 4.0306 4.16667C3.57036 4.16667 3.19727 3.79357 3.19727 3.33333ZM3.19727 9.16667C3.19727 8.70643 3.57036 8.33333 4.0306 8.33333C6.24074 8.33333 8.36035 9.21131 9.92316 10.7741C11.486 12.3369 12.3639 14.4565 12.3639 16.6667C12.3639 17.1269 11.9908 17.5 11.5306 17.5C11.0704 17.5 10.6973 17.1269 10.6973 16.6667C10.6973 14.8986 9.99489 13.2029 8.74464 11.9526C7.4944 10.7024 5.79871 10 4.0306 10C3.57036 10 3.19727 9.6269 3.19727 9.16667ZM4.86393 14.1667C3.94346 14.1667 3.19727 14.9129 3.19727 15.8333C3.19727 16.7538 3.94346 17.5 4.86393 17.5C5.78441 17.5 6.5306 16.7538 6.5306 15.8333C6.5306 14.9129 5.78441 14.1667 4.86393 14.1667Z" fill="#5F7896"/>
</svg>
